X: 10
T:Ballydesmond Polka No 1, The
T:Maurice Manley's Polka
M:2/4
L:1/8
R:Polka
K:Ador
EA AB|cd e2|G>F GA|GE ED|!
EA AB|cd ef|g/2f/2e dB|1A2 AG:|2A2 A2|!
|:a>g ab|ag ef|g>f ga|ge ed|!
ea ab|ag ef|g/2f/2e dB|1A2 A2:|2A2 AG|]!
